icons/svgs/chalkboard-user-outline.svg

<svg width="25" height="24" viewBox="0 0 25 24" fill="none" xmlns="http://www.w3.org/2000/svg">
<path d="M22.5 3.875H8.75C8.39844 3.875 8.125 4.1875 8.125 4.5V6.14062C7.53906 5.90625 6.91406 5.75 6.25 5.75V4.5C6.25 3.13281 7.34375 2 8.75 2H22.5C23.8672 2 25 3.13281 25 4.5V15.75C25 17.1562 23.8672 18.25 22.5 18.25H21.25H20.3125H15.3125H14.375H13.125C12.8125 17.5469 12.3828 16.9219 11.8359 16.375H14.375V14.8125C14.375 13.6406 15.3516 12.625 16.5625 12.625H19.0625C20.2344 12.625 21.25 13.6406 21.25 14.8125V16.375H22.5C22.8125 16.375 23.125 16.1016 23.125 15.75V4.5C23.125 4.1875 22.8125 3.875 22.5 3.875ZM19.375 16.375V14.8125C19.375 14.6562 19.2188 14.5 19.0625 14.5H16.5625C16.3672 14.5 16.25 14.6562 16.25 14.8125V16.375H19.375ZM8.125 10.75C8.125 10.0859 7.73438 9.5 7.1875 9.14844C6.60156 8.79688 5.85938 8.79688 5.3125 9.14844C4.72656 9.5 4.375 10.0859 4.375 10.75C4.375 11.4531 4.72656 12.0391 5.3125 12.3906C5.85938 12.7422 6.60156 12.7422 7.1875 12.3906C7.73438 12.0391 8.125 11.4531 8.125 10.75ZM2.5 10.75C2.5 9.42188 3.20312 8.21094 4.375 7.50781C5.50781 6.84375 6.95312 6.84375 8.125 7.50781C9.25781 8.21094 10 9.42188 10 10.75C10 12.1172 9.25781 13.3281 8.125 14.0312C6.95312 14.6953 5.50781 14.6953 4.375 14.0312C3.20312 13.3281 2.5 12.1172 2.5 10.75ZM1.95312 20.125H10.5078C10.1172 18.7188 8.82812 17.625 7.26562 17.625H5.19531C3.63281 17.625 2.34375 18.7188 1.95312 20.125ZM0 20.9844C0 18.0938 2.30469 15.75 5.19531 15.75H7.26562C10.1562 15.75 12.5 18.0938 12.5 20.9844C12.5 21.5312 12.0312 22 11.4453 22H1.01562C0.429688 22 0 21.5703 0 20.9844Z" fill="black"/>
</svg>

<svg xmlns="http://www.w3.org/2000/svg" width="24" height="24" fill="currentColor" class="icon-chalkboard-user-outline" viewBox="0 0 24 24">
  <mask id="a" width="25" height="20" x="0" y="2" maskUnits="userSpaceOnUse" style="mask-type:alpha">
    <path d="M22.5 3.875H8.75a.64.64 0 0 0-.625.625v1.64c-.586-.234-1.21-.39-1.875-.39V4.5c0-1.367 1.094-2.5 2.5-2.5H22.5C23.867 2 25 3.133 25 4.5v11.25c0 1.406-1.133 2.5-2.5 2.5h-9.375a6.2 6.2 0 0 0-1.29-1.875h2.54v-1.562c0-1.172.977-2.188 2.188-2.188h2.5c1.171 0 2.187 1.016 2.187 2.188v1.562h1.25a.64.64 0 0 0 .625-.625V4.5c0-.312-.312-.625-.625-.625m-3.125 12.5v-1.562a.336.336 0 0 0-.312-.313h-2.5a.31.31 0 0 0-.313.313v1.562zM8.125 10.75c0-.664-.39-1.25-.937-1.602-.586-.351-1.329-.351-1.875 0-.586.352-.938.938-.938 1.602 0 .703.352 1.29.938 1.64.546.352 1.289.352 1.875 0 .546-.35.937-.937.937-1.64m-5.625 0c0-1.328.703-2.54 1.875-3.242 1.133-.664 2.578-.664 3.75 0C9.258 8.21 10 9.422 10 10.75c0 1.367-.742 2.578-1.875 3.281-1.172.664-2.617.664-3.75 0C3.203 13.328 2.5 12.117 2.5 10.75m-.547 9.375h8.555c-.39-1.406-1.68-2.5-3.242-2.5h-2.07c-1.563 0-2.852 1.094-3.243 2.5M0 20.985c0-2.891 2.305-5.235 5.195-5.235h2.07a5.235 5.235 0 0 1 5.235 5.234c0 .547-.469 1.016-1.055 1.016H1.015A.985.985 0 0 1 0 20.984"/>
  </mask>
  <g mask="url(#a)">
    <path d="M0 0h24v24H0z"/>
  </g>
</svg>
